src/pos-icons/alpha-d.svg

<svg height="24" viewBox="0 0 24 24" width="24" xmlns="http://www.w3.org/2000/svg"><path d="m9 7v10h4a2 2 0 0 0 2-2v-6a2 2 0 0 0 -2-2zm2 2h2v6h-2z"/></svg>

<?xml version="1.0" encoding="UTF-8"?><!DOCTYPE svg PUBLIC "-//W3C//DTD SVG 1.1//EN" "http://www.w3.org/Graphics/SVG/1.1/DTD/svg11.dtd"><svg xmlns="http://www.w3.org/2000/svg" xmlns:xlink="http://www.w3.org/1999/xlink" version="1.1" id="mdi-alpha-d" width="24" height="24" viewBox="0 0 24 24"><path d="M9,7V17H13A2,2 0 0,0 15,15V9A2,2 0 0,0 13,7H9M11,9H13V15H11V9Z" /></svg>
